img/icons/error.svg

<svg width="40" height="40" viewBox="0 0 40 40" fill="none" xmlns="http://www.w3.org/2000/svg">
<path fill-rule="evenodd" clip-rule="evenodd" d="M36.6668 20C36.6668 29.2047 29.2049 36.6666 20.0002 36.6666H4.98966C3.51713 36.6666 2.77968 34.8714 3.82092 33.8215L7.08266 30.5325C4.73907 27.6616 3.3335 23.9949 3.3335 20C3.3335 10.7952 10.7954 3.33331 20.0002 3.33331C29.2049 3.33331 36.6668 10.7952 36.6668 20ZM25.3453 14.6548C25.9962 15.3057 25.9962 16.361 25.3453 17.0118L22.3572 20L25.3453 22.9881C25.9962 23.639 25.9962 24.6943 25.3453 25.3452C24.6945 25.996 23.6392 25.996 22.9883 25.3452L20.0002 22.357L17.012 25.3452C16.3611 25.996 15.3059 25.996 14.655 25.3452C14.0041 24.6943 14.0041 23.639 14.655 22.9881L17.6431 20L14.655 17.0118C14.0041 16.361 14.0041 15.3057 14.655 14.6548C15.3059 14.0039 16.3611 14.0039 17.012 14.6548L20.0002 17.643L22.9883 14.6548C23.6392 14.0039 24.6945 14.0039 25.3453 14.6548Z" fill="#FF4762"/>
</svg>

<svg width="40" height="40" viewBox="0 0 40 40" fill="none" xmlns="http://www.w3.org/2000/svg"><path fill-rule="evenodd" clip-rule="evenodd" d="M36.667 20c0 9.205-7.462 16.667-16.667 16.667H4.99c-1.473 0-2.21-1.796-1.17-2.846l3.263-3.288A16.598 16.598 0 013.333 20c0-9.205 7.462-16.667 16.667-16.667 9.205 0 16.667 7.462 16.667 16.667zm-11.322-5.345c.651.65.651 1.706 0 2.357L22.357 20l2.988 2.988a1.667 1.667 0 01-2.357 2.357L20 22.357l-2.988 2.988a1.667 1.667 0 01-2.357-2.357L17.643 20l-2.988-2.988a1.667 1.667 0 112.357-2.357L20 17.643l2.988-2.988a1.666 1.666 0 012.357 0z" fill="#FF4762"/></svg>
